X:1470
T:Davy Hornpipe
O:england
M:C|
L:1/8
R:Hornpipe
K:G
dc|BGBd gdcB|A2a2a2ag|fgfd cdcA|GFGA B2dc|
BGBd gdcB|A2a2agec|BdBG AcAF|G2G2G2Bc|
dcBA GBdg|e2c2c2cd|ed^cB Aaag|f2d2d2ef|
gaag fgaf|efge dcBA|BdBG AcAF|G2G2G2||
